app/dist/common/images/masterflex-se.svg

<svg height="18" viewBox="0 0 18 18" width="18" xmlns="http://www.w3.org/2000/svg"><path d="m0 0h18v18h-18z" fill="#f0f3fa"/><g fill="#0154a0"><path d="m6 14h-2v-5.19c0-3.88 2.88-4.81 4.62-4.81 1.73 0 2.62.86 3.07 1.3l2.31 2.22v3.15c-.38-.37-1.67-1.67-2.7-2.6-1.57-1.43-2.55-2.37-4.02-1.66-.9.42-1.28 1.66-1.28 2.39z"/><path d="m8.5 14h-1v-5.19c0-.48.11-.9.61-1.14s1.06 0 1.47.4l4.42 4.45v1.48l-4.97-4.9c-.17-.18-.53-.06-.53.17z"/></g></svg>

<!-- by TradingView --><svg width="18" height="18" viewBox="0 0 18 18" xmlns="http://www.w3.org/2000/svg"><path fill="#F0F3FA" d="M0 0h18v18H0z"/><path d="M6 14H4V8.81C4 4.93 6.88 4 8.62 4c1.73 0 2.62.86 3.07 1.3L14 7.52v3.15c-.38-.37-1.67-1.67-2.7-2.6C9.73 6.64 8.75 5.7 7.28 6.41 6.38 6.83 6 8.07 6 8.8V14Z" fill="#0154A0"/><path d="M8.5 14h-1V8.81c0-.48.11-.9.61-1.14.5-.24 1.06 0 1.47.4L14 12.52V14L9.03 9.1c-.17-.18-.53-.06-.53.17V14Z" fill="#0154A0"/></svg>
